co/home_alt_check.svg

<svg viewBox="0 0 24 24" fill="none" xmlns="http://www.w3.org/2000/svg" height="1em" width="1em">
  <path d="M19 22H5C4.44772 22 4 21.5523 4 21V11.357C4.01549 11.1119 4.11964 10.8809 4.293 10.707L11.293 3.70698C11.4806 3.51921 11.7351 3.4137 12.0005 3.4137C12.2659 3.4137 12.5204 3.51921 12.708 3.70698L19.708 10.707C19.8957 10.8943 20.0009 11.1488 20 11.414V21C20 21.5523 19.5523 22 19 22ZM12 5.82798L6 11.828V20H18V11.828L12 5.82798ZM10.5 18.559L7.794 15.859L9.2 14.441L10.5 15.733L14.8 11.441L16.212 12.857L10.5 18.558V18.559Z" fill="black"/>
</svg>

<svg viewBox="0 0 24 24" fill="none" xmlns="http://www.w3.org/2000/svg" height="1em" width="1em">
  <path d="M19 22H5a1 1 0 0 1-1-1v-9.643a1.01 1.01 0 0 1 .293-.65l7-7a1 1 0 0 1 1.415 0l7 7a.994.994 0 0 1 .292.707V21a1 1 0 0 1-1 1ZM12 5.828l-6 6V20h12v-8.172l-6-6Zm-1.5 12.731-2.706-2.7L9.2 14.441l1.3 1.292 4.3-4.292 1.412 1.416-5.712 5.701v.001Z" fill="#000"/>
</svg>
